custom_files/u166.svg

<svg width="19" height="19" viewBox="-237 382 19 19" xmlns="http://www.w3.org/2000/svg"><path d="M-227.5 382c5.32 0 9.5 4.18 9.5 9.5s-4.18 9.5-9.5 9.5-9.5-4.18-9.5-9.5 4.18-9.5 9.5-9.5z" fill="#aaa5a5"/><path d="M-227.5 382.5c5.04 0 9 3.96 9 9s-3.96 9-9 9-9-3.96-9-9 3.96-9 9-9z" stroke="#797979" fill="none"/></svg>

﻿<?xml version="1.0" encoding="utf-8"?>
<svg version="1.1" xmlns:xlink="http://www.w3.org/1999/xlink" width="19px" height="19px" viewBox="-237 382  19 19" xmlns="http://www.w3.org/2000/svg">
  <path d="M -227.5 382  C -222.18 382  -218 386.18  -218 391.5  C -218 396.82  -222.18 401  -227.5 401  C -232.82 401  -237 396.82  -237 391.5  C -237 386.18  -232.82 382  -227.5 382  Z " fill-rule="nonzero" fill="#aaa5a5" stroke="none" />
  <path d="M -227.5 382.5  C -222.46 382.5  -218.5 386.46  -218.5 391.5  C -218.5 396.54  -222.46 400.5  -227.5 400.5  C -232.54 400.5  -236.5 396.54  -236.5 391.5  C -236.5 386.46  -232.54 382.5  -227.5 382.5  Z " stroke-width="1" stroke="#797979" fill="none" />
</svg>
